img/ico/section-advantage-ico.svg

<svg width="70" height="70" viewBox="0 0 70 70" fill="none" xmlns="http://www.w3.org/2000/svg">
<path fill-rule="evenodd" clip-rule="evenodd" d="M22.2852 58.7891C17.7734 58.7891 14.082 54.9609 14.082 50.5859C14.082 46.0742 17.7734 42.3828 22.2852 42.3828C26.7969 42.3828 30.4883 46.0742 30.4883 50.5859C30.4883 55.0977 26.7969 58.7891 22.2852 58.7891ZM22.2852 44.2969C18.8672 44.2969 16.1328 47.168 16.1328 50.4492C15.9961 54.0039 18.7305 56.7383 22.2852 56.7383C25.7031 56.7383 28.4375 54.0039 28.4375 50.5859C28.4375 47.168 25.7031 44.2969 22.2852 44.2969Z" fill="#DC3545"/>
<path fill-rule="evenodd" clip-rule="evenodd" d="M25.5664 70H18.8672C18.3203 70 17.9102 69.5898 17.9102 68.9062V65.4883C16.8164 65.2148 15.7227 64.668 14.7656 64.1211L12.168 66.582C11.7578 66.9922 11.2109 66.9922 10.8008 66.582L6.01562 61.7969C5.60547 61.5234 5.60547 60.8398 6.01562 60.4297L8.47656 57.9688C7.92969 56.875 7.51953 55.918 7.24609 54.8242H3.82812C3.28125 54.8242 2.73438 54.2773 2.73438 53.7305V47.168C2.73438 46.6211 3.28125 46.0742 3.82812 46.0742H7.24609C7.65625 45.1172 8.06641 44.0234 8.61328 43.0664L6.01562 40.4688C5.60547 40.0586 5.60547 39.5117 6.01562 39.1016L10.8008 34.3164C11.2109 33.9062 11.8945 33.9062 12.3047 34.3164L14.7656 36.7773C15.7227 36.2305 16.8164 35.8203 17.9102 35.5469V31.9922C17.9102 31.4453 18.3203 31.0352 19.0039 31.0352H25.7031C26.25 31.0352 26.6602 31.4453 26.6602 31.9922V35.5469C27.7539 35.8203 28.8477 36.2305 29.8047 36.7773L32.2656 34.3164C32.6758 33.9062 33.3594 33.9062 33.7695 34.3164L38.5547 39.1016C38.9648 39.5117 38.9648 40.0586 38.5547 40.4688L35.957 43.0664C36.5039 44.0234 36.9141 45.1172 37.1875 46.2109H40.7422C41.2891 46.2109 41.8359 46.6211 41.8359 47.168V53.8672C41.8359 54.4141 41.2891 54.9609 40.7422 54.9609H37.1875C36.9141 56.0547 36.5039 57.0117 35.957 58.1055L38.418 60.5664C38.8281 60.9766 38.8281 61.5234 38.418 61.9336L33.6328 66.7188C33.2227 67.1289 32.6758 67.1289 32.2656 66.7188L29.668 64.2578C28.7109 64.8047 27.6172 65.2148 26.5234 65.625V69.043C26.5234 69.5898 26.1133 70 25.5664 70ZM19.8242 67.9492H24.6094V64.668C24.6094 64.2578 24.8828 63.8477 25.4297 63.7109C26.7969 63.4375 28.1641 62.8906 29.3945 62.0703C29.8047 61.7969 30.2148 61.9336 30.625 62.207L32.9492 64.5312L36.3672 61.1133L34.043 58.7891C33.6328 58.5156 33.6328 57.9688 33.9062 57.5586C34.5898 56.3281 35.2734 54.9609 35.5469 53.5938C35.6836 53.1836 35.957 52.7734 36.5039 52.7734H39.7852V48.125H36.5039C35.957 48.125 35.6836 47.7148 35.5469 47.3047C35.2734 45.9375 34.5898 44.5703 33.9062 43.3398C33.6328 42.9297 33.6328 42.3828 34.043 42.1094L36.3672 39.7852L32.9492 36.3672L30.625 38.6914C30.2148 39.1016 29.8047 39.1016 29.3945 38.8281C28.1641 38.0078 26.7969 37.4609 25.4297 37.1875C24.8828 37.1875 24.6094 36.7773 24.6094 36.3672V33.0859H19.8242V36.3672C19.8242 36.7773 19.5508 37.1875 19.1406 37.3242C17.7734 37.5977 16.4062 38.2812 15.1758 38.9648C14.7656 39.2383 14.2188 39.2383 13.8086 38.9648L11.4844 36.5039L8.20312 39.9219L10.5273 42.2461C10.8008 42.6562 10.9375 43.0664 10.6641 43.4766C9.84375 44.707 9.29688 46.0742 8.88672 47.4414C8.75 47.9883 8.33984 48.2617 7.92969 48.2617H4.64844V52.9102H8.06641C8.47656 52.9102 8.88672 53.3203 9.02344 53.7305C9.43359 55.0977 9.98047 56.4648 10.6641 57.6953C10.9375 58.1055 10.8008 58.6523 10.5273 58.9258L8.20312 61.25L11.6211 64.668L13.9453 62.3438C14.2188 61.9336 14.7656 61.9336 15.1758 62.207C16.4062 63.0273 17.7734 63.5742 19.1406 63.8477C19.5508 63.9844 19.9609 64.3945 19.9609 64.8047V67.9492H19.8242Z" fill="#DC3545"/>
<path fill-rule="evenodd" clip-rule="evenodd" d="M54.4141 47.8516C51.2695 47.8516 48.6719 45.3906 48.6719 42.2461C48.6719 39.1016 51.2695 36.6406 54.4141 36.6406C57.5586 36.6406 60.0195 39.1016 60.0195 42.2461C59.8828 45.3906 57.4219 47.8516 54.4141 47.8516ZM54.4141 38.5547C52.3633 38.5547 50.7227 40.332 50.7227 42.2461C50.7227 44.2969 52.3633 45.9375 54.4141 45.9375C56.3281 45.9375 57.9688 44.2969 57.9688 42.2461C57.9688 40.1953 56.3281 38.5547 54.4141 38.5547Z" fill="#DC3545"/>
<path fill-rule="evenodd" clip-rule="evenodd" d="M56.4648 55.0977H52.2266C51.6797 55.0977 51.1328 54.6875 51.1328 54.1406V52.0898C50.5859 51.9531 50.0391 51.6797 49.6289 51.4062L48.125 52.7734C47.9883 52.9102 47.7148 53.0469 47.4414 53.0469C47.168 53.0469 46.8945 52.9102 46.7578 52.7734L43.75 49.7656C43.3398 49.3555 43.3398 48.6719 43.75 48.2617L45.2539 46.8945C44.8438 46.3477 44.707 45.8008 44.5703 45.2539H42.5195C41.9727 45.2539 41.5625 44.8438 41.5625 44.2969V39.9219C41.5625 39.375 41.9727 38.9648 42.5195 38.9648H44.5703C44.707 38.418 44.9805 37.8711 45.2539 37.3242L43.75 35.8203C43.3398 35.5469 43.3398 34.8633 43.75 34.4531L46.7578 31.4453C46.8945 31.1719 47.3047 31.0352 47.4414 31.0352C47.7148 31.0352 47.9883 31.1719 48.125 31.4453L49.6289 32.8125C50.0391 32.5391 50.5859 32.4023 51.1328 32.1289V30.0781C51.1328 29.5312 51.6797 29.1211 52.2266 29.1211H56.4648C57.1484 29.1211 57.5586 29.5312 57.5586 30.0781V32.1289C58.1055 32.2656 58.6523 32.5391 59.1992 32.8125L60.5664 31.3086C60.7031 31.1719 60.9766 31.0352 61.25 31.0352C61.5234 31.0352 61.7969 31.1719 61.9336 31.3086L64.9414 34.4531C65.3516 34.8633 65.3516 35.4102 64.9414 35.8203L63.5742 37.1875C63.8477 37.7344 63.9844 38.2812 64.2578 38.8281H66.1719C66.7188 38.8281 67.2656 39.2383 67.2656 39.9219V44.1602C67.2656 44.707 66.7188 45.2539 66.1719 45.2539H64.2578C63.9844 45.8008 63.8477 46.3477 63.5742 46.7578L64.9414 48.2617C65.3516 48.6719 65.3516 49.2188 64.9414 49.6289L61.9336 52.7734C61.7969 52.9102 61.5234 53.0469 61.25 53.0469C60.9766 53.0469 60.7031 52.9102 60.5664 52.7734L59.1992 51.2695C58.6523 51.543 58.1055 51.8164 57.5586 51.9531V54.0039C57.5586 54.6875 57.0117 55.0977 56.4648 55.0977ZM53.1836 53.1836H55.5078V51.4062C55.5078 50.8594 55.7812 50.5859 56.1914 50.4492C57.1484 50.1758 57.9688 49.9023 58.6523 49.3555C59.0625 49.082 59.6094 49.2188 59.8828 49.4922L61.25 50.7227L62.8906 49.082L61.6602 47.8516C61.25 47.4414 61.25 47.0312 61.3867 46.6211C61.9336 45.8008 62.3438 44.9805 62.4805 44.1602C62.6172 43.75 63.0273 43.3398 63.4375 43.3398H65.2148V41.0156H63.4375C63.0273 41.0156 62.6172 40.7422 62.4805 40.332C62.207 39.5117 61.9336 38.5547 61.3867 37.8711C61.25 37.4609 61.25 36.9141 61.6602 36.6406L62.8906 35.4102L61.25 33.7695L59.8828 35C59.6094 35.4102 59.0625 35.4102 58.6523 35.1367C57.9688 34.7266 57.1484 34.3164 56.1914 34.1797C55.7812 34.043 55.5078 33.6328 55.5078 33.0859V31.4453H53.1836V33.0859C53.1836 33.6328 52.9102 34.043 52.3633 34.1797C51.543 34.3164 50.7227 34.7266 50.0391 35.1367C49.6289 35.4102 49.082 35.2734 48.6719 35L47.4414 33.7695L45.8008 35.4102L47.0312 36.6406C47.4414 36.9141 47.4414 37.4609 47.3047 37.8711C46.7578 38.5547 46.4844 39.5117 46.2109 40.332C46.2109 40.7422 45.8008 41.0156 45.2539 41.0156H43.4766V43.3398H45.2539C45.8008 43.3398 46.2109 43.75 46.2109 44.1602C46.4844 44.9805 46.7578 45.8008 47.3047 46.7578C47.4414 47.168 47.4414 47.5781 47.0312 47.8516L45.8008 49.2188L47.4414 50.8594L48.6719 49.4922C49.082 49.2188 49.6289 49.2188 50.0391 49.3555C50.7227 49.9023 51.543 50.1758 52.3633 50.4492C52.9102 50.5859 53.1836 50.8594 53.1836 51.4062V53.1836Z" fill="#DC3545"/>
<path fill-rule="evenodd" clip-rule="evenodd" d="M37.8711 23.2422C34.043 23.2422 30.8984 20.0977 30.8984 16.1328C30.8984 12.3047 34.043 9.16016 37.8711 9.16016C41.6992 9.16016 44.8438 12.3047 44.8438 16.1328C44.8438 20.0977 41.6992 23.2422 37.8711 23.2422ZM37.8711 11.2109C35.1367 11.2109 32.8125 13.3984 32.8125 16.1328C32.8125 18.8672 35 21.1914 37.8711 21.1914C40.6055 21.1914 42.793 19.0039 42.793 16.1328C42.793 13.3984 40.6055 11.2109 37.8711 11.2109Z" fill="#DC3545"/>
<path fill-rule="evenodd" clip-rule="evenodd" d="M40.6055 32.4023H35C34.4531 32.4023 34.043 31.9922 34.043 31.4453V28.7109C33.2227 28.4375 32.4023 28.0273 31.582 27.6172L29.668 29.668C29.2578 30.0781 28.7109 30.0781 28.3008 29.668L24.4727 25.8398C24.0625 25.4297 24.0625 24.7461 24.4727 24.3359L26.3867 22.4219C25.9766 21.6016 25.7031 20.7812 25.4297 19.9609H22.5586C22.0117 19.9609 21.6016 19.5508 21.6016 19.0039V13.3984C21.6016 12.8516 22.0117 12.4414 22.5586 12.4414H25.4297C25.5664 11.6211 25.9766 10.8008 26.3867 9.98047L24.4727 8.06641C24.0625 7.65625 24.0625 6.97266 24.4727 6.5625L28.3008 2.73438C28.4375 2.46094 28.7109 2.32422 28.9844 2.32422C29.2578 2.32422 29.5312 2.46094 29.668 2.73438L31.582 4.64844C32.4023 4.375 33.2227 3.96484 34.043 3.69141V0.957031C34.043 0.410156 34.5898 0 35.1367 0H40.6055C41.1523 0 41.6992 0.410156 41.6992 0.957031V3.69141C42.5195 3.96484 43.3398 4.375 44.0234 4.78516L45.9375 2.73438C46.2109 2.59766 46.4844 2.46094 46.6211 2.46094C46.8945 2.46094 47.168 2.59766 47.3047 2.73438L51.2695 6.69922C51.6797 7.10938 51.6797 7.65625 51.2695 8.06641L49.3555 9.98047C49.6289 10.8008 50.0391 11.6211 50.3125 12.4414H53.0469C53.7305 12.4414 54.1406 12.8516 54.1406 13.3984V19.0039C54.1406 19.5508 53.7305 19.9609 53.0469 19.9609H50.3125C50.0391 20.7812 49.7656 21.6016 49.3555 22.4219L51.2695 24.3359C51.6797 24.7461 51.6797 25.4297 51.2695 25.8398L47.3047 29.668C47.168 29.8047 46.8945 29.9414 46.6211 29.9414C46.3477 29.9414 46.2109 29.8047 45.9375 29.668L44.0234 27.6172C43.2031 28.1641 42.3828 28.4375 41.5625 28.7109V31.4453C41.5625 32.1289 41.1523 32.4023 40.6055 32.4023ZM36.0938 30.4883H39.6484V27.8906C39.6484 27.4805 39.9219 27.0703 40.4688 26.9336C41.4258 26.6602 42.5195 26.25 43.75 25.5664C44.1602 25.293 44.5703 25.4297 44.8438 25.7031L46.7578 27.6172L49.2188 25.0195L47.3047 23.2422C47.0312 22.832 46.8945 22.2852 47.3047 22.0117C47.8516 20.918 48.2617 19.8242 48.6719 18.7305C48.6719 18.3203 49.082 17.9102 49.6289 17.9102H52.0898V14.3555H49.6289C49.082 14.3555 48.6719 14.082 48.6719 13.6719C48.2617 12.4414 47.8516 11.3477 47.3047 10.3906C47.0312 9.98047 47.0312 9.43359 47.3047 9.16016L49.2188 7.24609L46.6211 4.78516L44.8438 6.5625C44.5703 6.97266 44.0234 6.97266 43.6133 6.83594C42.6562 6.15234 41.5625 5.74219 40.4688 5.46875C39.9219 5.33203 39.6484 4.92188 39.6484 4.375V1.91406H36.0938V4.375C36.0938 4.92188 35.6836 5.33203 35.2734 5.46875C34.1797 5.74219 33.0859 6.15234 31.9922 6.83594C31.582 6.97266 31.1719 6.97266 30.7617 6.5625L28.9844 4.78516L26.5234 7.24609L28.3008 9.16016C28.7109 9.43359 28.7109 9.84375 28.5742 10.2539C27.8906 11.4844 27.3438 12.5781 27.207 13.6719C27.0703 14.082 26.6602 14.3555 26.1133 14.3555H23.6523V18.0469H26.1133C26.6602 18.0469 27.0703 18.3203 27.207 18.7305C27.3438 19.8242 27.8906 20.918 28.5742 22.0117C28.7109 22.4219 28.7109 22.9688 28.4375 23.2422L26.5234 25.0195L29.1211 27.6172L30.8984 25.7031C31.3086 25.4297 31.7188 25.293 32.1289 25.5664C33.2227 26.25 34.3164 26.6602 35.4102 26.9336C35.8203 27.0703 36.2305 27.4805 36.2305 27.8906V30.4883H36.0938Z" fill="#DC3545"/>
</svg>

<svg width="70" height="70" viewBox="0 0 70 70" fill="currentColor" xmlns="http://www.w3.org/2000/svg" class="svg-icon">
    <path fill-rule="evenodd" clip-rule="evenodd"
        d="M22.285 58.79c-4.512 0-8.203-3.83-8.203-8.204 0-4.512 3.691-8.203 8.203-8.203s8.203 3.691 8.203 8.203-3.691 8.203-8.203 8.203m0-14.493c-3.418 0-6.152 2.871-6.152 6.152-.137 3.555 2.598 6.29 6.152 6.29a6.127 6.127 0 0 0 6.153-6.153c0-3.418-2.735-6.29-6.153-6.29" />
    <path fill-rule="evenodd" clip-rule="evenodd"
        d="M25.566 70h-6.699c-.547 0-.957-.41-.957-1.094v-3.418c-1.094-.273-2.187-.82-3.144-1.367l-2.598 2.461c-.41.41-.957.41-1.367 0l-4.785-4.785c-.41-.274-.41-.957 0-1.367l2.46-2.461c-.546-1.094-.956-2.051-1.23-3.145H3.828c-.547 0-1.094-.547-1.094-1.093v-6.563c0-.547.547-1.094 1.094-1.094h3.418c.41-.957.82-2.05 1.367-3.008L6.016 40.47c-.41-.41-.41-.957 0-1.367l4.785-4.786c.41-.41 1.094-.41 1.504 0l2.46 2.461c.958-.547 2.051-.957 3.145-1.23v-3.555c0-.547.41-.957 1.094-.957h6.7c.546 0 .956.41.956.957v3.555c1.094.273 2.188.684 3.145 1.23l2.46-2.46c.41-.41 1.094-.41 1.505 0l4.785 4.785c.41.41.41.957 0 1.367l-2.598 2.597c.547.957.957 2.051 1.23 3.145h3.555c.547 0 1.094.41 1.094.957v6.7c0 .546-.547 1.093-1.094 1.093h-3.554c-.274 1.094-.684 2.05-1.231 3.145l2.461 2.46c.41.41.41.957 0 1.368l-4.785 4.785c-.41.41-.957.41-1.367 0l-2.598-2.461c-.957.547-2.05.957-3.145 1.367v3.418c0 .547-.41.957-.957.957m-5.742-2.05h4.785v-3.282c0-.41.274-.82.82-.957a11.1 11.1 0 0 0 3.966-1.64c.41-.274.82-.137 1.23.136l2.324 2.324 3.418-3.418-2.324-2.324c-.41-.273-.41-.82-.137-1.23.684-1.23 1.367-2.598 1.64-3.965.138-.41.411-.82.958-.82h3.281v-4.649h-3.281c-.547 0-.82-.41-.957-.82-.274-1.367-.957-2.735-1.64-3.965-.274-.41-.274-.957.136-1.23l2.324-2.325-3.418-3.418-2.324 2.324c-.41.41-.82.41-1.23.137a11.1 11.1 0 0 0-3.965-1.64c-.547 0-.82-.41-.82-.82v-3.282h-4.786v3.281c0 .41-.273.82-.683.957-1.368.274-2.735.957-3.965 1.64-.41.274-.957.274-1.367 0l-2.325-2.46-3.28 3.418 2.323 2.324c.274.41.41.82.137 1.23-.82 1.231-1.367 2.598-1.777 3.965-.137.547-.547.82-.957.82H4.648v4.65h3.418c.41 0 .82.41.957.82.41 1.367.957 2.734 1.641 3.964.274.41.137.957-.137 1.23L8.203 61.25l3.418 3.418 2.324-2.324c.274-.41.82-.41 1.23-.137a11.1 11.1 0 0 0 3.966 1.64c.41.137.82.547.82.958v3.144zM54.414 47.852c-3.145 0-5.742-2.461-5.742-5.606s2.598-5.605 5.742-5.605 5.605 2.46 5.605 5.605c-.136 3.145-2.597 5.606-5.605 5.606m0-9.297c-2.05 0-3.691 1.777-3.691 3.691 0 2.05 1.64 3.691 3.691 3.691 1.914 0 3.555-1.64 3.555-3.69 0-2.052-1.64-3.692-3.555-3.692" />
    <path fill-rule="evenodd" clip-rule="evenodd"
        d="M56.465 55.098h-4.238c-.547 0-1.094-.41-1.094-.957V52.09a5 5 0 0 1-1.504-.684l-1.504 1.367c-.137.137-.41.274-.684.274-.273 0-.547-.137-.683-.274l-3.008-3.007a1.073 1.073 0 0 1 0-1.504l1.504-1.367c-.41-.547-.547-1.094-.684-1.641h-2.05a.935.935 0 0 1-.958-.957v-4.375c0-.547.41-.957.958-.957h2.05c.137-.547.41-1.094.684-1.64L43.75 35.82c-.41-.273-.41-.957 0-1.367l3.008-3.008c.136-.273.547-.41.683-.41.274 0 .547.137.684.41l1.504 1.367c.41-.273.957-.41 1.504-.683v-2.05c0-.548.547-.958 1.094-.958h4.238c.683 0 1.094.41 1.094.957v2.05c.547.138 1.093.411 1.64.684l1.367-1.503c.137-.137.41-.274.684-.274.273 0 .547.137.684.274l3.007 3.144c.41.41.41.957 0 1.367l-1.367 1.367c.274.547.41 1.094.684 1.641h1.914c.547 0 1.094.41 1.094 1.094v4.238c0 .547-.547 1.094-1.094 1.094h-1.914c-.274.547-.41 1.094-.684 1.504l1.367 1.504c.41.41.41.957 0 1.367l-3.007 3.144c-.137.137-.41.274-.684.274-.273 0-.547-.137-.684-.274L59.2 51.27c-.547.274-1.093.547-1.64.684v2.05c0 .684-.547 1.095-1.094 1.095m-3.281-1.914h2.324v-1.778c0-.547.273-.82.683-.957.957-.273 1.778-.547 2.461-1.093.41-.274.957-.137 1.23.136l1.368 1.23 1.64-1.64-1.23-1.23c-.41-.41-.41-.82-.273-1.23.547-.821.957-1.642 1.093-2.462.137-.41.547-.82.958-.82h1.777v-2.324h-1.778c-.41 0-.82-.274-.956-.684-.274-.82-.547-1.777-1.094-2.46-.137-.411-.137-.958.273-1.231l1.23-1.23-1.64-1.642L59.883 35c-.274.41-.82.41-1.23.137-.684-.41-1.505-.82-2.462-.957-.41-.137-.683-.547-.683-1.094v-1.64h-2.324v1.64c0 .547-.274.957-.82 1.094-.821.136-1.641.547-2.325.957-.41.273-.957.136-1.367-.137l-1.23-1.23-1.641 1.64 1.23 1.23c.41.274.41.82.274 1.231-.547.684-.82 1.64-1.094 2.461 0 .41-.41.684-.957.684h-1.777v2.324h1.777c.547 0 .957.41.957.82.273.82.547 1.64 1.094 2.598.136.41.136.82-.274 1.094l-1.23 1.367 1.64 1.64 1.23-1.367c.411-.273.958-.273 1.368-.136.684.546 1.504.82 2.324 1.093.547.137.82.41.82.957zM37.871 23.242c-3.828 0-6.973-3.144-6.973-7.11 0-3.827 3.145-6.972 6.973-6.972s6.973 3.145 6.973 6.973c0 3.965-3.145 7.11-6.973 7.11m0-12.031c-2.734 0-5.059 2.187-5.059 4.922S35 21.19 37.873 21.19c2.733 0 4.921-2.187 4.921-5.058a4.9 4.9 0 0 0-4.922-4.922" />
    <path fill-rule="evenodd" clip-rule="evenodd"
        d="M40.606 32.402H35a.934.934 0 0 1-.957-.957v-2.734c-.82-.273-1.64-.684-2.461-1.094l-1.914 2.051c-.41.41-.957.41-1.367 0l-3.828-3.828a1.073 1.073 0 0 1 0-1.504l1.914-1.914c-.41-.82-.684-1.64-.957-2.461h-2.871a.934.934 0 0 1-.957-.957v-5.606c0-.546.41-.957.957-.957h2.87c.137-.82.548-1.64.958-2.46l-1.914-1.915a1.073 1.073 0 0 1 0-1.504L28.3 2.735a.75.75 0 0 1 .683-.41c.274 0 .547.137.684.41l1.914 1.914c.82-.273 1.64-.683 2.461-.957V.957c0-.547.547-.957 1.094-.957h5.468c.547 0 1.094.41 1.094.957v2.734c.82.274 1.64.684 2.324 1.094l1.914-2.05c.274-.137.547-.274.684-.274.273 0 .547.137.684.273L51.27 6.7c.41.41.41.957 0 1.367L49.355 9.98c.274.82.684 1.641.958 2.461h2.734c.684 0 1.094.41 1.094.957v5.606c0 .547-.41.957-1.094.957h-2.734c-.274.82-.547 1.64-.958 2.46l1.915 1.915c.41.41.41 1.094 0 1.504l-3.965 3.828c-.137.137-.41.273-.684.273-.273 0-.41-.136-.684-.273l-1.914-2.05c-.82.546-1.64.82-2.46 1.093v2.734c0 .684-.41.957-.958.957m-4.512-1.914h3.554v-2.597c0-.41.274-.82.82-.957a15.3 15.3 0 0 0 3.282-1.368c.41-.273.82-.136 1.094.137l1.914 1.914 2.46-2.597-1.913-1.778c-.274-.41-.41-.957 0-1.23.547-1.094.957-2.188 1.367-3.282 0-.41.41-.82.957-.82h2.46v-3.555h-2.46c-.547 0-.957-.273-.957-.683-.41-1.23-.82-2.324-1.367-3.281-.274-.41-.274-.957 0-1.23l1.914-1.915-2.598-2.46-1.777 1.777c-.274.41-.82.41-1.23.273-.958-.684-2.051-1.094-3.145-1.367-.547-.137-.82-.547-.82-1.094v-2.46h-3.555v2.46c0 .547-.41.957-.82 1.094-1.094.273-2.188.683-3.282 1.367-.41.137-.82.137-1.23-.274l-1.778-1.777-2.46 2.461L28.3 9.16c.41.274.41.684.273 1.094-.683 1.23-1.23 2.324-1.367 3.418-.137.41-.547.683-1.094.683h-2.46v3.692h2.46c.547 0 .957.273 1.094.683.137 1.094.684 2.188 1.367 3.282.137.41.137.957-.137 1.23l-1.914 1.777 2.598 2.598 1.777-1.914c.41-.273.82-.41 1.23-.137 1.095.684 2.188 1.094 3.282 1.368.41.136.82.546.82.957v2.597z" />
</svg>
